icons/zig.svg

<svg width="16" height="16" viewBox="0 0 16 16" fill="none" xmlns="http://www.w3.org/2000/svg">
<path d="M7.52373 10.451L13.7647 3L9.92159 4.72549L6.39218 4.72549L4.90198 6.45098H8.48855L2.23531 13.9804L6.07845 12.1765H9.60786L11.0981 10.451H7.52373Z" fill="#EA9921"/>
<path d="M5.22486 4.72549L3.72549 6.45099V10.6804L2.41433 12.1765H2V4.72549H5.22486Z" fill="#EA9921"/>
<path d="M14 12.1765V4.72549H13.7736L12.2745 6.52942V10.451L10.8251 12.1765H14Z" fill="#EA9921"/>
</svg>

<svg xmlns="http://www.w3.org/2000/svg" width="16" height="16" fill="none"><path fill="#EA9921" d="M7.524 10.451 13.764 3 9.923 4.725h-3.53l-1.49 1.726h3.587l-6.254 7.53 3.843-1.804h3.53l1.49-1.726H7.524Z"/><path fill="#EA9921" d="m5.225 4.725-1.5 1.726v4.23l-1.31 1.496H2V4.725h3.225ZM14 12.177V4.725h-.226l-1.5 1.804v3.922l-1.449 1.726H14Z"/></svg>
